X:1004
T:Scale Navigation C
O:Kevin Fraser
Z:Kevin Fraser
Q:1/4=120
K:HP
M:4/4
L:1/4
R:March
V:gstem=up stem=down
%%MIDI gracedivider 4
%%MIDI gchord
%%MIDI beatstring
[| c  G  c  A  |  c  B  c  d  |  c  e  c  f  |  c  g   c  a  |  a  c  g   c  |  f   c  e  c |  d  c  c  c  |  B  c   G  c  |]
w: c  G  c  A  |  c  B  c  d  |  c  e  c  f  |  c  g   c  a  |  a  c  g   c  |  f   c  e  c |  d  c  c  c  |  B  c   G  c 
w: o em o en  |  o o  o a  |  o e  o ve |  o di  o I  |  I  o di  o |  ve  o e  o|  a  o o  o |  o  o  em o :| 


